Papirus/64x64/apps/ibus-anthy.svg

<svg width="64" height="64" version="1.1" xmlns="http://www.w3.org/2000/svg">
 <g>
  <path d="m4 56v2c0 1.662 1.338 3 3 3h50c1.662 0 3-1.338 3-3v-2c0 1.662-1.338 3-3 3h-50c-1.662 0-3-1.338-3-3z" style="opacity:.2"/>
  <rect transform="matrix(0,-1,-1,0,0,0)" x="-60" y="-60" width="56" height="56" rx="3" ry="3" style="fill:#2095f2"/>
  <g style="opacity:.2">
   <path d="m44.928 18.717164c-5.077333 1.109333-10.794667 1.749333-15.616 2.005333l0.256-1.28c0.298666-1.408 0.512-2.816 0.981333-4.309333l-5.973333-0.256c0.04267 1.408 0 2.432-0.213334 4.266666-0.04267 0.512001-0.170666 1.066667-0.256 1.706667-2.56-0.04267-5.76-0.384-8.277333-0.810666v5.248c2.133333 0.213333 4.608 0.384 7.296 0.426666-1.109333 4.650667-2.816 10.282667-4.821334 14.165334l4.992001 1.792c0.426666-0.725333 0.725333-1.28 1.194666-1.834667 2.517334-3.242666 6.826667-4.992 11.690667-4.992 4.096 0 6.314667 2.133334 6.314667 4.650667 0 6.229334-9.344 7.338667-18.602667 5.845334l1.493333 5.461333c13.653334 1.450667 22.784001-1.962667 22.784001-11.477334 0-5.376-4.522667-9.045333-11.349334-9.045333-3.882666 0-7.082667 0.768-10.496 2.645333 0.682667-2.048 1.365333-4.736 1.92-7.296 5.674667-0.298667 12.373334-1.109333 16.768001-1.792z"/>
  </g>
  <path d="m7 4c-1.662 0-3 1.338-3 3v1c0-1.662 1.338-3 3-3h50c1.662 0 3 1.338 3 3v-1c0-1.662-1.338-3-3-3z" style="fill:#ffffff;opacity:.1"/>
  <g style="fill:#ffffff">
   <path d="m44.928 17.717084c-5.077333 1.109333-10.794667 1.749333-15.616 2.005333l0.256-1.28c0.298666-1.408 0.512-2.816 0.981333-4.309333l-5.973333-0.256c0.04267 1.408 0 2.432-0.213334 4.266666-0.04267 0.512-0.170666 1.066667-0.256 1.706667-2.56-0.04267-5.76-0.384-8.277333-0.810667v5.248001c2.133333 0.213333 4.608 0.384 7.296 0.426666-1.109333 4.650667-2.816 10.282667-4.821334 14.165334l4.992001 1.792c0.426666-0.725333 0.725333-1.28 1.194666-1.834667 2.517334-3.242666 6.826667-4.992 11.690667-4.992 4.096 0 6.314667 2.133334 6.314667 4.650667 0 6.229334-9.344 7.338667-18.602667 5.845333l1.493333 5.461334c13.653334 1.450667 22.784001-1.962667 22.784001-11.477334 0-5.376-4.522667-9.045333-11.349334-9.045333-3.882666 0-7.082667 0.768-10.496 2.645333 0.682667-2.048 1.365333-4.736 1.92-7.296 5.674667-0.298667 12.373334-1.109333 16.768001-1.792z"/>
  </g>
 </g>
</svg>

<svg xmlns="http://www.w3.org/2000/svg" width="64" height="64" version="1.1">
 <rect style="opacity:0.2" width="56" height="56" x="4" y="5" rx="2.8" ry="2.8"/>
 <rect style="fill:#2095f2" width="56" height="56" x="4" y="4" rx="2.8" ry="2.8"/>
 <path style="fill:#ffffff;opacity:0.2" d="M 6.8008 4 C 5.2496 4 4 5.2496 4 6.8008 L 4 7.8008 C 4 6.2496 5.2496 5 6.8008 5 L 57.199 5 C 58.75 5 60 6.2496 60 7.8008 L 60 6.8008 C 60 5.2496 58.75 4 57.199 4 L 6.8008 4 z"/>
 <path style="opacity:0.2" d="M 44.928,18.717 C 39.851,19.826 34.133,20.466 29.312,20.722 L 29.568,19.442 C 29.867,18.034 30.08,16.626 30.549,15.133 L 24.576,14.877 C 24.619,16.285 24.576,17.309 24.363,19.144 24.32,19.656 24.192,20.21 24.107,20.85 21.547,20.808 18.347,20.466 15.829,20.04 V 25.288 C 17.963,25.501 20.437,25.672 23.125,25.714 22.016,30.365 20.309,35.997 18.304,39.88 L 23.296,41.672 C 23.723,40.946 24.021,40.392 24.491,39.837 27.008,36.594 31.317,34.845 36.181,34.845 40.277,34.845 42.496,36.978 42.496,39.496 42.496,45.725 33.152,46.834 23.893,45.341 L 25.387,50.802 C 39.04,52.253 48.171,48.84 48.171,39.325 48.171,33.949 43.648,30.28 36.821,30.28 32.939,30.28 29.739,31.048 26.325,32.925 27.008,30.877 27.691,28.189 28.245,25.629 33.92,25.33 40.619,24.52 45.013,23.837 Z"/>
 <path style="fill:#ffffff" d="M 44.928,17.717 C 39.851,18.826 34.133,19.466 29.312,19.722 L 29.568,18.442 C 29.867,17.034 30.08,15.626 30.549,14.133 L 24.576,13.877 C 24.619,15.285 24.576,16.309 24.363,18.144 24.32,18.656 24.192,19.21 24.107,19.85 21.547,19.808 18.347,19.466 15.829,19.04 V 24.288 C 17.963,24.501 20.437,24.672 23.125,24.714 22.016,29.365 20.309,34.997 18.304,38.88 L 23.296,40.672 C 23.723,39.946 24.021,39.392 24.491,38.837 27.008,35.594 31.317,33.845 36.181,33.845 40.277,33.845 42.496,35.978 42.496,38.496 42.496,44.725 33.152,45.834 23.893,44.341 L 25.387,49.802 C 39.04,51.253 48.171,47.84 48.171,38.325 48.171,32.949 43.648,29.28 36.821,29.28 32.939,29.28 29.739,30.048 26.325,31.925 27.008,29.877 27.691,27.189 28.245,24.629 33.92,24.33 40.619,23.52 45.013,22.837 Z"/>
</svg>
